!!!COA:	Josquin des Prez
!!!CDT:	~1450-1521/08/27
!!!OTL@@FRE:	Tenez moy en voz bras
!!!AGN:	Chanson
!!!SCT:	NJE 30.12
!!!SCA:	New Josquin Edition 30.12
!!!voices:	6
**kern	**kern	**kern	**kern	**kern	**kern
*staff6	*staff5	*staff4	*staff3	*staff2	*staff1
*Ivox	*Ivox	*Ivox	*Ivox	*Ivox	*Ivox
*I"Sextus	*I"Bassus	*I"Tenor	*I"Quintus	*I"Contratenor	*I"Superius
*I'Sx	*I'B	*I'T	*I'Q	*I'Ct	*I'S
*clefF4	*clefF4	*clefGv2	*clefGv2	*clefGv2	*clefG2
*k[b-]	*k[b-]	*k[b-]	*k[b-]	*k[b-]	*k[b-]
*M2/1	*M2/1	*M2/1	*M2/1	*M2/1	*M2/1
*met(C|)	*met(C|)	*met(C|)	*met(C|)	*met(C|)	*met(C|)
=1-	=1-	=1-	=1-	=1-	=1-
0r	1G	0r	0r	1G	0r
.	1G	.	.	1G	.
=2	=2	=2	=2	=2	=2
1D	2.F\	0r	0d	0A	0r
.	4E\	.	.	.	.
1D	4D\	.	.	.	.
.	4C/	.	.	.	.
.	[2D\	.	.	.	.
=3	=3	=3	=3	=3	=3
0F	2D\]	0r	1d	1A	0r
.	4C/	.	.	.	.
.	4BB-/	.	.	.	.
.	2AA/	.	2c\	1A	.
.	2D\	.	2A/	.	.
=4	=4	=4	=4	=4	=4
1G	1GG	0r	0B-	1d	1g
1G	1r	.	.	[1d	1g
=5	=5	=5	=5	=5	=5
1D	2r	0r	0A	2d\]	0a
.	1D	.	.	2d\	.
1r	.	.	.	2A/	.
.	2D\	.	.	2d\	.
=6	=6	=6	=6	=6	=6
0r	1AA	0r	0r	2.c\	1a
.	.	.	.	4B-\	.
.	2.D\	.	.	4A/	1a
.	.	.	.	4G/	.
.	.	.	.	2F/	.
.	4C/	.	.	.	.
=7	=7	=7	=7	=7	=7
0r	2.BB-/	0r	0r	2F/	0dd
.	.	.	.	2.G/	.
.	4AA/	.	.	.	.
.	2GG/	.	.	.	.
.	.	.	.	4A/	.
.	[2G\	.	.	[2B-\	.
=8	=8	=8	=8	=8	=8
0r	4G\]	1G	1r	4B-\]	0r
.	4F\	.	.	4A/	.
.	4E\	.	.	1d	.
.	4D\	.	.	.	.
.	1E	1G	1G	.	.
.	.	.	.	2c#i\	.
=9	=9	=9	=9	=9	=9
2r	1D	0A	2F/	1d	0r
2D\	.	.	2D/	.	.
2C/	1r	.	2E/	1r	.
[2D\	.	.	[2F/	.	.
=10	=10	=10	=10	=10	=10
2D\]	0r	1A	2F/]	1d	0r
4C/	.	.	4E/	.	.
4BB-/	.	.	4D/	.	.
2C/	.	1A	2E/	2c\	.
2D\	.	.	2F/	2A/	.
=11	=11	=11	=11	=11	=11
[0GG	1.G	[0d	1G	0B-	0r
.	.	.	1D	.	.
.	2G\	.	.	.	.
=12	=12	=12	=12	=12	=12
0GG]	1D	0d]	1.d	2r	0r
.	.	.	.	2B-\	.
.	1G	.	.	4B-\	.
.	.	.	.	4c\	.
.	.	.	2d\	4d\	.
.	.	.	.	4e\	.
=13	=13	=13	=13	=13	=13
0r	2F\	0r	1A	1f	1.cc
.	4E\	.	.	.	.
.	4D\	.	.	.	.
.	2.C/	.	[1c	[1e	.
.	.	.	.	.	2cc\
.	4D\	.	.	.	.
=14	=14	=14	=14	=14	=14
0r	1E	0r	2c\]	1e]	1g
.	.	.	2B-\	.	.
.	[1F	.	2.A/	1r	2.cc\
.	.	.	8G/L	.	4b-\
.	.	.	8F/J	.	.
=15	=15	=15	=15	=15	=15
0r	2F\]	0r	1c	0r	2a/
.	2E\	.	.	.	2g/
.	2.D\	.	[1d	.	2.f/
.	4C/	.	.	.	4e/
=16	=16	=16	=16	=16	=16
0r	2BB-/	0r	2d\]	0r	2d/
.	2E-i\	.	2c\	.	1g
.	1D	.	1d	.	.
.	.	.	.	.	2f#i/
=17	=17	=17	=17	=17	=17
0r	[0C	1.c	[0e-i	1r	1g
.	.	.	.	[1g	1r
.	.	2c\	.	.	.
=18	=18	=18	=18	=18	=18
1G	0C]	1G	0e-]	1g]	0r
1G	.	1c	.	1g	.
=19	=19	=19	=19	=19	=19
1G	0r	1B-	1r	2.d\	0r
.	.	.	.	4e\	.
2D\	.	1A	1d	2f\	.
2F\	.	.	.	4e\	.
.	.	.	.	4d\	.
=20	=20	=20	=20	=20	=20
1E	0r	1G	1e	1c#i	1r
1D	.	1F	1f	1d	1dd
=21	=21	=21	=21	=21	=21
0E	0r	1G	2e\	0r	2cc\
.	.	.	2.d\	.	1b-
.	.	1G	.	.	.
.	.	.	8c#i\L	.	.
.	.	.	8Bni\J	.	.
.	.	.	2c#i\	.	4a/
.	.	.	.	.	4g/
=22	=22	=22	=22	=22	=22
0D	1D	0A	1.d	2r	2.f/
.	.	.	.	1f	.
.	.	.	.	.	4g/
.	2D\	.	.	.	4a/
.	.	.	.	.	4b-\
.	[2F\	.	4c\	4e\	[2a/
.	.	.	4B-\	4d\	.
=23	=23	=23	=23	=23	=23
0r	4F\]	1A	2A/	2c\	2a/]
.	4E\	.	.	.	.
.	2D\	.	2d\	2d\	4g/
.	.	.	.	.	4f/
.	2C/	1c	1G	2e\	1g
.	2E\	.	.	2c\	.
=24	=24	=24	=24	=24	=24
1.D	1D	0d	2A/	2r	0f
.	.	.	2F/	2A/	.
.	1BB-	.	1F	2B-\	.
4C/	.	.	.	4A/	.
4BB-/	.	.	.	4G/	.
=25	=25	=25	=25	=25	=25
0AA	0C	1c	0r	4A/	2r
.	.	.	.	4G/	.
.	.	.	.	4F/	2.a/
.	.	.	.	4E/	.
.	.	1c	.	1F	.
.	.	.	.	.	4b-\
.	.	.	.	.	4cc\
.	.	.	.	.	4a/
=26	=26	=26	=26	=26	=26
1GG	0D	2B-\	0r	1G	1.b-
.	.	1d	.	.	.
4GG/	.	.	.	2r	.
4AA/	.	.	.	.	.
4BB-/	.	4c\	.	[2d\	4a/
4C/	.	4B-\	.	.	4g/
=27	=27	=27	=27	=27	=27
2D\	0r	2A/	1r	2d\]	2f/
2E-i\	.	2G/	.	2c\	1g
1D	.	1A	1A	[1d	.
.	.	.	.	.	2f#i/
=28	=28	=28	=28	=28	=28
1GG	1r	[0G	2.B-\	1d]	[0g
.	.	.	4A/	.	.
1r	1C	.	2G/	2c\	.
.	.	.	2F/	[2e-i\	.
=29	=29	=29	=29	=29	=29
1G	1C	0G]	1E-i	4e-\]	0g]
.	.	.	.	4d\	.
.	.	.	.	4c\	.
.	.	.	.	4B-\	.
1G	1C	.	1E-i	1c	.
=30	=30	=30	=30	=30	=30
1G	1GG	0r	2D/	1d	0r
.	.	.	2d\	.	.
1D	1r	.	2d\	1f	.
.	.	.	2d\	.	.
=31	=31	=31	=31	=31	=31
1r	0D	0r	1.A	1f	0r
[1A	.	.	.	1f	.
.	.	.	2B-\	.	.
=32	=32	=32	=32	=32	=32
1A]	1.AA	0r	1.c	1.e	0r
[1E	.	.	.	.	.
.	2BB-/	.	4B-\	2d\	.
.	.	.	4A/	.	.
=33	=33	=33	=33	=33	=33
2E\]	2C/	0r	2G/	2c\	0r
2F\	2D\	.	2B-\	1f	.
1G	1C	.	1c	.	.
.	.	.	.	2e\	.
=34	=34	=34	=34	=34	=34
2A\	1.FF	0c	4c\	0f	1cc
.	.	.	4B-\	.	.
1F	.	.	4A/	.	.
.	.	.	4G/	.	.
.	.	.	[1A	.	1cc
4E\	2GG/	.	.	.	.
4D\	.	.	.	.	.
=35	=35	=35	=35	=35	=35
1C	2.AA/	1c	2A/]	0e	1cc
.	.	.	4G/	.	.
.	4BB-/	.	4F/	.	.
2r	2.C/	1c	2.G/	.	1g
2C/	.	.	.	.	.
.	4D\	.	4F/	.	.
=36	=36	=36	=36	=36	=36
2C/	2E\	1G	4E/	1e	1r
.	.	.	4D/	.	.
2C/	2F\	.	2C/	.	.
1GG	1G	1r	2D/	2.d\	[1dd
.	.	.	2G/	.	.
.	.	.	.	4e\	.
=37	=37	=37	=37	=37	=37
1r	1D	0d	2F/	1f	1dd]
.	.	.	2D/	.	.
[1D	1r	.	[1d	1d	[1a
=38	=38	=38	=38	=38	=38
1D]	1.F	1.A	1d]	1.a	2a/]
.	.	.	.	.	2b-\
[1AA	.	.	1c	.	[1cc
.	4E\	2B-\	.	4g\	.
.	4D\	.	.	4f\	.
=39	=39	=39	=39	=39	=39
2AA/]	2.C/	0c	1r	1e	2cc\]
2BB-/	.	.	.	.	4b-\
.	4D\	.	.	.	4a/
1C	2E\	.	1c	2r	1g
.	2C/	.	.	2e\	.
=40	=40	=40	=40	=40	=40
1FF	1.F	0r	2c\	1.f	2.a/
.	.	.	1A	.	.
.	.	.	.	.	4b-\
1F	.	.	.	.	2cc\
.	2BB-/	.	[2F/	2d\	[2dd\
=41	=41	=41	=41	=41	=41
1D	1BB-	1d	2F/]	1f	4dd\]
.	.	.	.	.	4cc\
.	.	.	1D	.	4b-\
.	.	.	.	.	4a/
1G	1GG	1d	.	1g	1b-
.	.	.	2E/	.	.
=42	=42	=42	=42	=42	=42
1F	1D	1d	2F/	2a\	1.a
.	.	.	2D/	1f	.
1D	1r	1f	1A	.	.
.	.	.	.	4e\	4g/
.	.	.	.	4d\	4f/
=43	=43	=43	=43	=43	=43
2E\	0r	1e	0r	1c	1g
2C/	.	.	.	.	.
2D\	.	1d	.	2r	2f/
2G\	.	.	.	2g\	[2b-\
=44	=44	=44	=44	=44	=44
2A\	0r	1c	1r	2e\	2b-\]
2F\	.	.	.	2f\	1a
1G	.	1B-	2r	[1d	.
.	.	.	2d\	.	2g/
=45	=45	=45	=45	=45	=45
1D	0D	0A	1f	1d]	0a
1r	.	.	2d\	1r	.
.	.	.	2f\	.	.
=46	=46	=46	=46	=46	=46
0r	2C/	0r	2e\	1G	0r
.	2BB-/	.	1d	.	.
.	2E-i\	.	.	1G	.
.	2E-i\	.	2c\	.	.
=47	=47	=47	=47	=47	=47
1D	2D\	0r	1d	0A	0r
.	2.F\	.	.	.	.
1D	.	.	[1d	.	.
.	4E\	.	.	.	.
.	[2D\	.	.	.	.
=48	=48	=48	=48	=48	=48
0F	2D\]	0r	1d]	1A	0r
.	4C/	.	.	.	.
.	4BB-/	.	.	.	.
.	2AA/	.	2c\	1A	.
.	2D\	.	2A/	.	.
=49	=49	=49	=49	=49	=49
1G	1GG	0r	1B-	1d	1g
1G	1r	.	1B-	[1d	1g
=50	=50	=50	=50	=50	=50
1D	2r	0r	0A	2d\]	0a
.	1D	.	.	2d\	.
1r	.	.	.	2A/	.
.	2D\	.	.	2d\	.
=51	=51	=51	=51	=51	=51
0r	1AA	0r	0r	2.c\	1a
.	.	.	.	4B-\	.
.	2.D\	.	.	4A/	1a
.	.	.	.	4G/	.
.	.	.	.	2F/	.
.	4C/	.	.	.	.
=52	=52	=52	=52	=52	=52
0r	2.BB-/	0r	0r	2F/	0dd
.	.	.	.	2.G/	.
.	4AA/	.	.	.	.
.	2GG/	.	.	.	.
.	.	.	.	4A/	.
.	[2G\	.	.	[2B-\	.
=53	=53	=53	=53	=53	=53
0r	4G\]	1G	1r	4B-\]	0r
.	4F\	.	.	4A/	.
.	4E\	.	.	1d	.
.	4D\	.	.	.	.
.	1E	1G	1G	.	.
.	.	.	.	2c#i\	.
=54	=54	=54	=54	=54	=54
2r	1D	0A	2F/	1d	0r
2D\	.	.	2D/	.	.
2C/	1r	.	2E/	1r	.
[2D\	.	.	[2F/	.	.
=55	=55	=55	=55	=55	=55
2D\]	0r	1A	2F/]	1d	0r
4C/	.	.	4E/	.	.
4BB-/	.	.	4D/	.	.
2C/	.	1A	2E/	2c\	.
2D\	.	.	2F/	2A/	.
=56	=56	=56	=56	=56	=56
[0GG	1.G	[0d	1G	0B-	0r
.	.	.	1D	.	.
.	2G\	.	.	.	.
=57	=57	=57	=57	=57	=57
0GG]	1D	0d]	1.d	2r	0r
.	.	.	.	2B-\	.
.	1G	.	.	4B-\	.
.	.	.	.	4c\	.
.	.	.	2d\	4d\	.
.	.	.	.	4e\	.
=58	=58	=58	=58	=58	=58
0r	2F\	0r	1A	1f	1.cc
.	4E\	.	.	.	.
.	4D\	.	.	.	.
.	2.C/	.	[1c	[1e	.
.	.	.	.	.	2cc\
.	4D\	.	.	.	.
=59	=59	=59	=59	=59	=59
0r	1E	0r	2c\]	1e]	1g
.	.	.	2B-\	.	.
.	[1F	.	2.A/	1r	2.cc\
.	.	.	8G/L	.	4b-\
.	.	.	8F/J	.	.
=60	=60	=60	=60	=60	=60
0r	2F\]	0r	1c	0r	2a/
.	2E\	.	.	.	2g/
.	2.D\	.	[1d	.	2.f/
.	4C/	.	.	.	4e/
=61	=61	=61	=61	=61	=61
0r	2BB-/	0r	2d\]	0r	2d/
.	2E-i\	.	2c\	.	1g
.	1D	.	1d	.	.
.	.	.	.	.	2f#i/
=62	=62	=62	=62	=62	=62
0r	[0C	1.c	[0e-i	1r	1g
.	.	.	.	[1g	1r
.	.	2c\	.	.	.
=63	=63	=63	=63	=63	=63
1G	0C]	1G	0e-]	1g]	0r
1G	.	1c	.	1g	.
=64	=64	=64	=64	=64	=64
1G	0r	1B-	1r	2.d\	0r
.	.	.	.	4e\	.
2D\	.	1A	1d	2f\	.
2F\	.	.	.	4e\	.
.	.	.	.	4d\	.
=65	=65	=65	=65	=65	=65
1E	0r	1G	1e	1c#i	1r
1D	.	1F	1f	1d	1dd
=66	=66	=66	=66	=66	=66
0E	0r	1G	2e\	0r	2cc\
.	.	.	2.d\	.	1b-
.	.	1G	.	.	.
.	.	.	8c#i\L	.	.
.	.	.	8Bni\J	.	.
.	.	.	2c#i\	.	4a/
.	.	.	.	.	4g/
=67	=67	=67	=67	=67	=67
0D	1D	0A	1.d	2r	2.f/
.	.	.	.	1f	.
.	.	.	.	.	4g/
.	2D\	.	.	.	4a/
.	.	.	.	.	4b-\
.	[2F\	.	4c\	4e\	[2a/
.	.	.	4B-\	4d\	.
=68	=68	=68	=68	=68	=68
0r	4F\]	1A	2A/	2c\	2a/]
.	4E\	.	.	.	.
.	2D\	.	2d\	2d\	4g/
.	.	.	.	.	4f/
.	2C/	1c	1G	2e\	1g
.	2E\	.	.	2c\	.
=69	=69	=69	=69	=69	=69
1.D	1D	0d	2A/	2r	0f
.	.	.	2F/	2A/	.
.	1BB-	.	1F	2B-\	.
4C/	.	.	.	4A/	.
4BB-/	.	.	.	4G/	.
=70	=70	=70	=70	=70	=70
0AA	0C	1c	0r	4A/	2r
.	.	.	.	4G/	.
.	.	.	.	4F/	2.a/
.	.	.	.	4E/	.
.	.	1c	.	1F	.
.	.	.	.	.	4b-\
.	.	.	.	.	4cc\
.	.	.	.	.	4a/
=71	=71	=71	=71	=71	=71
1GG	0D	2B-\	0r	1G	1.b-
.	.	1d	.	.	.
4GG/	.	.	.	2r	.
4AA/	.	.	.	.	.
4BB-/	.	4c\	.	[2d\	4a/
4C/	.	4B-\	.	.	4g/
=72	=72	=72	=72	=72	=72
2D\	0r	2A/	1r	2d\]	2f/
2E-i\	.	2G/	.	2c\	1g
1D	.	1A	1A	[1d	.
.	.	.	.	.	2f#i/
=73	=73	=73	=73	=73	=73
2.GG/	0D	[0Gl	2.B-\	2d\]	[0gl
.	.	.	.	2.B-\	.
4AA/	.	.	4c\	.	.
2BB-/	.	.	2d\	.	.
.	.	.	.	4c\	.
2GG/	.	.	2B-\	2d\	.
=74	=74	=74	=74	=74	=74
1C	1E-i	0G_	1c	2.G/	0g_
.	.	.	.	4A/	.
1BB-	1D	.	1d	4B-\	.
.	.	.	.	4G/	.
.	.	.	.	[2d\	.
=75	=75	=75	=75	=75	=75
0C	0E-i	0G_	1G	2d\]	0g_
.	.	.	.	4c\	.
.	.	.	.	4B-\	.
.	.	.	1c	1c	.
=76	=76	=76	=76	=76	=76
0GGl	0Dl	0G]	0B-l	0dl	0g]
==	==	==	==	==	==
*-	*-	*-	*-	*-	*-
!!!RDF**kern: l=long note in original notation
!!!RDF**kern: i=editorial accidental
!!!ENC:	Will Watson 08/09/2011
!!!END:	2011/09/08/
!!!EED:	Jesse Rodin
!!!EEV:	2011/12/01/
!!attribution-level@Jos: 4 (questionable)
!!!ONB:	Translated from MusicXML and edited on 2011/12/01/ by Craig Sapp
!!muse2ps: C^@{COA}?\n@{SCT}^i2I150v95,95,95,95,95,130Q16
